public/medias/icons/GCP.svg

<svg xmlns="http://www.w3.org/2000/svg" xmlns:xlink="http://www.w3.org/1999/xlink" width="800px" height="800px" viewBox="0 -25 256 256" version="1.1" preserveAspectRatio="xMidYMid"><g><path d="M170.2517,56.8186 L192.5047,34.5656 L193.9877,25.1956 C153.4367,-11.6774 88.9757,-7.4964 52.4207,33.9196 C42.2667,45.4226 34.7337,59.7636 30.7167,74.5726 L38.6867,73.4496 L83.1917,66.1106 L86.6277,62.5966 C106.4247,40.8546 139.8977,37.9296 162.7557,56.4286 L170.2517,56.8186 Z" fill="#EA4335"></path><path d="M224.2048,73.9182 C219.0898,55.0822 208.5888,38.1492 193.9878,25.1962 L162.7558,56.4282 C175.9438,67.2042 183.4568,83.4382 183.1348,100.4652 L183.1348,106.0092 C198.4858,106.0092 210.9318,118.4542 210.9318,133.8052 C210.9318,149.1572 198.4858,161.2902 183.1348,161.2902 L127.4638,161.2902 L121.9978,167.2242 L121.9978,200.5642 L127.4638,205.7952 L183.1348,205.7952 C223.0648,206.1062 255.6868,174.3012 255.9978,134.3712 C256.1858,110.1682 244.2528,87.4782 224.2048,73.9182" fill="#4285F4"></path><path d="M71.8704,205.7957 L127.4634,205.7957 L127.4634,161.2897 L71.8704,161.2897 C67.9094,161.2887 64.0734,160.4377 60.4714,158.7917 L52.5844,161.2117 L30.1754,183.4647 L28.2234,191.0387 C40.7904,200.5277 56.1234,205.8637 71.8704,205.7957" fill="#34A853"></path><path d="M71.8704,61.4255 C31.9394,61.6635 -0.2366,94.2275 0.0014,134.1575 C0.1344,156.4555 10.5484,177.4455 28.2234,191.0385 L60.4714,158.7915 C46.4804,152.4705 40.2634,136.0055 46.5844,122.0155 C52.9044,108.0255 69.3704,101.8085 83.3594,108.1285 C89.5244,110.9135 94.4614,115.8515 97.2464,122.0155 L129.4944,89.7685 C115.7734,71.8315 94.4534,61.3445 71.8704,61.4255" fill="#FBBC05"></path></g></svg>

<svg xmlns="http://www.w3.org/2000/svg" width="800" height="800" preserveAspectRatio="xMidYMid" viewBox="0 -25 256 256">
  <path fill="#EA4335" d="m170.25 56.82 22.25-22.25 1.5-9.37C153.44-11.68 88.98-7.5 52.42 33.92a102.86 102.86 0 0 0-21.7 40.65l7.97-1.12 44.5-7.34 3.44-3.51c19.8-21.75 53.27-24.67 76.13-6.17l7.5.39Z"/>
  <path fill="#4285F4" d="M224.2 73.92A100.25 100.25 0 0 0 194 25.2l-31.23 31.23a55.52 55.52 0 0 1 20.37 44.04V106a27.8 27.8 0 0 1 27.8 27.8c0 15.35-12.44 27.48-27.8 27.48h-55.67l-5.46 5.93v33.34l5.46 5.24h55.67c39.93.3 72.56-31.5 72.87-71.43a72.3 72.3 0 0 0-31.8-60.45"/>
  <path fill="#34A853" d="M71.87 205.8h55.6v-44.51h-55.6c-3.96 0-7.8-.85-11.4-2.5l-7.89 2.42-22.4 22.25-1.96 7.58a72.14 72.14 0 0 0 43.65 14.76"/>
  <path fill="#FBBC05" d="M71.87 61.43a72.3 72.3 0 0 0-43.65 129.6l32.25-32.24a27.8 27.8 0 1 1 36.78-36.77l32.24-32.25a72.22 72.22 0 0 0-57.62-28.34"/>
</svg>
